X: 15290
T: Girls In Boisdale, The
R: reel
M: 4/4
K: Adorian
|:z2|e2Be dG B/^c/d|ed B/^c/d edge|dG B/^c/d GAAG|DG B/^c/d GGBd|
deBe dG B/^c/d|ed B/^c/d eage|dged BedB|eABG ~A2:|
e/f/g|gaeA (3AAA ga|eA (3AAA gaef|fgdB (3BBB AB|GG B/^c/d e2 zA|
gaeA (3AAA ga|eA (3AAA gaef|fgdB (3BBB AB|dGed BA (3AAA|
gaeA (3AAA ga|eA (3AAA gaef|fgdB (3BBB AB|GG B/^c/d e2zd|
edBe dG B/^c/d|ed B/^c/d eage|dged BedB|eABG ~A2||

